packages/core/src/svgs/tokens/branded/PRIME.svg

<svg width="24" height="24" viewBox="0 0 24 24" fill="none" xmlns="http://www.w3.org/2000/svg">
<path d="M13.6666 3.11108H10.3333V12.8333L12 13.6666L13.6666 12.8333V3.11108ZM5.33334 8.11108H2L3.05556 12.8555C3.0741 12.9355 3.11012 13.0103 3.16103 13.0747C3.21195 13.139 3.27648 13.1913 3.35 13.2278L5.82778 14.4723C6.01291 14.5642 6.16868 14.706 6.27762 14.8816C6.38656 15.0574 6.44434 15.2599 6.44444 15.4666V19.2221L10.3333 20.8889V16.1666L7.22222 14.7333C7.06619 14.6603 6.92924 14.5521 6.82221 14.4172C6.71519 14.2821 6.64103 14.1241 6.60556 13.9555L5.33334 8.11108ZM13.6666 20.8889V16.1666L16.7777 14.7333C16.9338 14.6603 17.0708 14.5521 17.1778 14.4172C17.2849 14.2821 17.359 14.1241 17.3944 13.9555L18.6667 8.11108H22L20.9444 12.8555C20.9259 12.9355 20.8899 13.0103 20.839 13.0747C20.7881 13.139 20.7235 13.1913 20.65 13.2278L18.1722 14.4723C17.9871 14.5642 17.8314 14.706 17.7224 14.8816C17.6135 15.0574 17.5556 15.2599 17.5555 15.4666V19.2221L13.6666 20.8889Z" fill="#ED1651"/>
</svg>

<svg xmlns="http://www.w3.org/2000/svg" width="24" height="24" fill="none" viewBox="0 0 24 24">
    <path fill="#ED1651" d="M13.667 3.111h-3.334v9.722l1.667.834 1.667-.834zm-8.334 5H2l1.056 4.744a.56.56 0 0 0 .294.373l2.478 1.244a1.11 1.11 0 0 1 .616.995v3.755l3.89 1.667v-4.722l-3.112-1.434a1.11 1.11 0 0 1-.616-.777zm8.334 12.778v-4.722l3.11-1.434a1.11 1.11 0 0 0 .617-.777l1.273-5.845H22l-1.056 4.744a.56.56 0 0 1-.294.373l-2.478 1.244a1.11 1.11 0 0 0-.617.995v3.755z"/>
</svg>
